;FLAVOR:Marlin
;TIME:2459
;Filament used: 2.05813m
;Layer height: 0.2
;MINX:85.264
;MINY:75.2
;MINZ:0.2
;MAXX:144.418
;MAXY:144.8
;MAXZ:14.4
;TARGET_MACHINE.NAME:Creality Ender-3 V3 SE
;Generated with Cura_SteamEngine 5.11.0
M220 S100 ;Reset Feedrate
M221 S100 ;Reset Flowrate

G28 ;Home

M420 S1; Use saved mesh leveling data

G92 E0 ;Reset Extruder
G1 Z2.0 F3000 ;Move Z Axis up
G1 X-3 Y20 Z0.28 F5000.0 ;Move to start position
M190 S60 ; Set bed temperature and wait
M109 S200 ; Set hotend temperature and wait
G1 X-3 Y100.0 Z0.28 F1500.0 E15 ;Draw the first line
G1 X-2 Y100.0 Z0.28 F5000.0 ;Move to side a little
G1 X-2 Y20 Z0.28 F1500.0 E30 ;Draw the second line
G92 E0 ;Reset Extruder
G1 E-1.0000 F1800 ;Retract a bit
G1 Z2.0 F3000 ;Move Z Axis up
G1 E0.0000 F1800 

M82 ;absolute extrusion mode
G92 E0
G92 E0
G1 F2400 E-0.8
;LAYER_COUNT:72
;LAYER:0
M107
G0 F9000 X91.219 Y78.223 Z0.2
;TYPE:SKIRT
G1 F2400 E0
G1 F1800 X92.78 Y76.764 E0.07107
G1 X94.803 Y75.557 E0.14942
G1 X96.521 Y75.275 E0.20732
G1 X123.353 Y75.2 E1.09976
G1 X125.249 Y75.666 E1.1647
G1 X127.277 Y76.719 E1.2407
G1 X128.745 Y78.289 E1.31219
G1 X129.715 Y79.927 E1.37551
G1 X129.993 Y80.625 E1.4005
G1 X130.123 Y81.469 E1.4289
G1 X130.958 Y82.164 E1.46503
G1 X131.554 Y82.776 E1.49345
G1 X132.14 Y83.508 E1.52463
G1 X133.745 Y83.39 E1.57816
G1 X137.584 Y84.47 E1.7108
G1 X139.499 Y85.468 E1.78263
G1 X142.17 Y88.267 E1.91131
G1 X143.214 Y89.913 E1.97614
G1 X144.235 Y93.41 E2.0973
G1 X144.418 Y95.65 E2.17205
G1 X143.691 Y98.219 E2.26085
G1 X144.016 Y99.324 E2.29916
G1 X144.069 Y100.506 E2.33852
G1 X144.041 Y101.068 E2.35723
G1 X144.067 Y101.644 E2.37641
G1 X144.019 Y102.711 E2.41193
G1 X143.078 Y106.083 E2.52837
G1 X142.116 Y107.906 E2.59693
G1 X139.507 Y110.515 E2.71965
G1 X137.715 Y111.655 E2.79029
G1 X133.587 Y112.826 E2.93301
G1 X132.503 Y112.738 E2.96918
G1 X133.321 Y114.302 E3.02788
G1 X133.659 Y115.167 E3.05877
G1 X134.056 Y116.615 E3.10871
G1 X134.196 Y117.454 E3.137
G1 X134.3 Y119.001 E3.18857
G1 X134.28 Y133.621 E3.67483
G1 X134.226 Y134.295 E3.69732
G1 X133.921 Y135.915 E3.75215
G1 X133.425 Y137.448 E3.80574
G1 X133.081 Y138.212 E3.83361
G1 X132.249 Y139.631 E3.88832
G1 X131.532 Y140.577 E3.9278
G1 X130.436 Y141.728 E3.98066
G1 X129.728 Y142.321 E4.01138
G1 X128.671 Y143.048 E4.05405
G1 X127.198 Y143.821 E4.10937
G1 X126.333 Y144.159 E4.14026
G1 X124.885 Y144.556 E4.1902
G1 X124.046 Y144.696 E4.21849
G1 X122.5 Y144.8 E4.27003
G1 X96.879 Y144.78 E5.12219
G1 X96.205 Y144.726 E5.14468
G1 X94.585 Y144.421 E5.1995
G1 X93.052 Y143.925 E5.25309
G1 X92.288 Y143.581 E5.28096
G1 X90.869 Y142.749 E5.33567
G1 X89.923 Y142.032 E5.37515
G1 X88.772 Y140.936 E5.42801
G1 X88.179 Y140.228 E5.45873
G1 X87.452 Y139.171 E5.5014
G1 X86.679 Y137.698 E5.55673
G1 X86.341 Y136.833 E5.58762
G1 X85.944 Y135.385 E5.63755
G1 X85.804 Y134.546 E5.66585
G1 X85.7 Y132.999 E5.71742
G1 X85.72 Y118.379 E6.20368
G1 X85.774 Y117.705 E6.22617
G1 X86.079 Y116.084 E6.28103
G1 X86.577 Y114.549 E6.3347
G1 X86.96 Y113.708 E6.36544
G1 X87.753 Y112.358 E6.41751
G1 X87.358 Y111.855 E6.43879
G1 X87.105 Y111.465 E6.45425
G1 X86.224 Y109.726 E6.51909
G1 X85.822 Y108.628 E6.55798
G1 X85.482 Y107.315 E6.60309
G1 X85.385 Y106.731 E6.62278
G1 X85.264 Y104.999 E6.68052
G1 X85.284 Y90.483 E7.16333
G1 X85.338 Y89.732 E7.18837
G1 X85.615 Y88.09 E7.24376
G1 X85.822 Y87.342 E7.26957
G1 X86.368 Y85.939 E7.31964
G1 X87.069 Y84.6 E7.36991
G1 X87.411 Y84.073 E7.39081
G1 X88.664 Y82.542 E7.45661
G1 X89.304 Y81.921 E7.48627
G1 X89.868 Y81.467 E7.51035
G1 X90.167 Y80.25 E7.55203
G1 X91.219 Y78.223 E7.62799
G0 F9000 X91.542 Y78.468
G1 F1800 X93.019 Y77.088 E7.69522
G1 X94.943 Y75.94 E7.76974
G1 X96.586 Y75.67 E7.82512
G1 X123.307 Y75.6 E8.71386
G1 X125.106 Y76.042 E8.77548
G1 X127.032 Y77.042 E8.84766
G1 X128.421 Y78.528 E8.91531
G1 X129.343 Y80.075 E8.97521
G1 X129.605 Y80.734 E8.9988
G1 X129.751 Y81.68 E9.03063
G1 X130.671 Y82.443 E9.07039
G1 X131.267 Y83.055 E9.0988
G1 X131.959 Y83.923 E9.13572
G1 X133.705 Y83.794 E9.19395
G1 X137.434 Y84.843 E9.32279
G1 X139.257 Y85.793 E9.39117
G1 X141.852 Y88.513 E9.5162
G1 X142.846 Y90.08 E9.57792
G1 X143.839 Y93.481 E9.69576
G1 X144.013 Y95.611 E9.76684
G1 X143.274 Y98.221 E9.85706
G1 X143.618 Y99.39 E9.89759
G1 X143.669 Y100.524 E9.93535
G1 X143.64 Y101.077 E9.95377
G1 X143.667 Y101.626 E9.97205
G1 X143.621 Y102.65 E10.00614
G1 X142.705 Y105.932 E10.11947
G1 X141.79 Y107.666 E10.18468
G1 X139.256 Y110.2 E10.30387
G1 X137.548 Y111.286 E10.37119
G1 X133.548 Y112.421 E10.50949
G1 X131.798 Y112.279 E10.56788
G1 X131.736 Y112.354 E10.57112
G1 X132.218 Y113.056 E10.59944
G1 X132.948 Y114.448 E10.65172
G1 X133.286 Y115.313 E10.68261
G1 X133.661 Y116.681 E10.72979
G1 X133.801 Y117.52 E10.75808
G1 X133.9 Y119 E10.80741
G1 X133.881 Y133.589 E11.29264
G1 X133.827 Y134.263 E11.31513
G1 X133.54 Y135.792 E11.36688
G1 X133.06 Y137.284 E11.41901
G1 X132.716 Y138.048 E11.44687
G1 X131.93 Y139.39 E11.4986
G1 X131.242 Y140.302 E11.5366
G1 X130.179 Y141.422 E11.58796
G1 X129.501 Y141.991 E11.61739
G1 X128.444 Y142.718 E11.66006
G1 X127.052 Y143.448 E11.71234
G1 X126.187 Y143.786 E11.74323
G1 X124.819 Y144.161 E11.79041
G1 X123.98 Y144.301 E11.8187
G1 X122.5 Y144.4 E11.86803
G1 X96.911 Y144.381 E12.71913
G1 X96.237 Y144.327 E12.74162
G1 X94.708 Y144.04 E12.79336
G1 X93.216 Y143.56 E12.84549
G1 X92.452 Y143.216 E12.87336
G1 X91.11 Y142.43 E12.92508
G1 X90.198 Y141.742 E12.96308
G1 X89.078 Y140.679 E13.01444
G1 X88.509 Y140.001 E13.04388
G1 X87.782 Y138.944 E13.08655
G1 X87.052 Y137.552 E13.13883
G1 X86.714 Y136.687 E13.16971
G1 X86.339 Y135.319 E13.21689
G1 X86.199 Y134.48 E13.24518
G1 X86.1 Y133 E13.29452
G1 X86.119 Y118.411 E13.77975
G1 X86.173 Y117.737 E13.80224
G1 X86.472 Y116.158 E13.85569
G1 X86.941 Y114.714 E13.90619
G1 X87.305 Y113.911 E13.93551
G1 X88.051 Y112.641 E13.9845
G1 X88.262 Y112.359 E13.99622
G1 X87.694 Y111.637 E14.02677
G1 X87.441 Y111.247 E14.04223
G1 X86.6 Y109.588 E14.1041
G1 X86.198 Y108.49 E14.14299
G1 X85.877 Y107.249 E14.18562
G1 X85.78 Y106.665 E14.20531
G1 X85.664 Y105 E14.26082
G1 X85.683 Y90.512 E14.7427
G1 X85.737 Y89.761 E14.76774
G1 X86.001 Y88.197 E14.82049
G1 X86.208 Y87.449 E14.84631
G1 X86.723 Y86.124 E14.89359
G1 X87.405 Y84.818 E14.94259
G1 X87.747 Y84.291 E14.96349
G1 X88.943 Y82.829 E15.02631
G1 X89.555 Y82.233 E15.05472
G1 X90.223 Y81.695 E15.08325
G1 X90.543 Y80.393 E15.12785
G1 X91.542 Y78.468 E15.19998
G0 F9000 X91.865 Y78.713
G1 F1800 X93.261 Y77.409 E15.26352
G1 X95.081 Y76.323 E15.33401
G1 X96.651 Y76.065 E15.38693
G1 X123.26 Y76 E16.27195
G1 X124.964 Y76.419 E16.33031
G1 X126.787 Y77.365 E16.39862
G1 X128.097 Y78.767 E16.46244
G1 X128.999 Y80.28 E16.52103
G1 X129.217 Y80.842 E16.54108
G1 X129.379 Y81.892 E16.57641
G1 X130.384 Y82.722 E16.61977
G1 X130.98 Y83.334 E16.64818
G1 X131.778 Y84.337 E16.69081
G1 X133.665 Y84.198 E16.75374
G1 X137.284 Y85.216 E16.87878
G1 X139.015 Y86.118 E16.9437
G1 X141.534 Y88.759 E17.06509
G1 X142.478 Y90.247 E17.1237
G1 X143.443 Y93.552 E17.23822
G1 X143.608 Y95.572 E17.30562
G1 X142.858 Y98.223 E17.39726
G1 X143.22 Y99.456 E17.44
G1 X143.269 Y100.542 E17.47616
G1 X143.24 Y101.077 E17.49398
G1 X143.267 Y101.608 E17.51166
G1 X143.223 Y102.59 E17.54435
G1 X142.333 Y105.78 E17.65451
G1 X141.464 Y107.426 E17.71641
G1 X139.003 Y109.887 E17.83217
G1 X137.384 Y110.917 E17.89599
G1 X133.509 Y112.016 E18.02996
G1 X131.622 Y111.863 E18.09293
G1 X131.235 Y112.333 E18.11318
G1 X131.888 Y113.283 E18.15152
G1 X132.575 Y114.594 E18.20075
G1 X132.913 Y115.459 E18.23164
G1 X133.266 Y116.747 E18.27605
G1 X133.406 Y117.586 E18.30435
G1 X133.5 Y119 E18.35148
G1 X133.482 Y133.557 E18.83565
G1 X133.428 Y134.231 E18.85814
G1 X133.159 Y135.67 E18.90683
G1 X132.695 Y137.12 E18.95746
G1 X132.351 Y137.884 E18.98533
G1 X131.61 Y139.15 E19.03412
G1 X130.952 Y140.027 E19.07059
G1 X129.921 Y141.116 E19.12047
G1 X129.274 Y141.661 E19.1486
G1 X128.217 Y142.388 E19.19127
G1 X126.906 Y143.075 E19.2405
G1 X126.041 Y143.413 E19.27139
G1 X124.753 Y143.766 E19.31581
G1 X123.914 Y143.906 E19.3441
G1 X122.5 Y144 E19.39123
G1 X96.943 Y143.982 E20.24126
G1 X96.269 Y143.928 E20.26375
G1 X94.83 Y143.659 E20.31244
G1 X93.38 Y143.195 E20.36308
G1 X92.616 Y142.851 E20.39094
G1 X91.35 Y142.11 E20.43973
G1 X90.473 Y141.452 E20.4762
G1 X89.384 Y140.421 E20.52608
G1 X88.839 Y139.774 E20.55421
G1 X88.112 Y138.717 E20.59688
G1 X87.425 Y137.406 E20.64611
G1 X87.087 Y136.541 E20.677
G1 X86.734 Y135.253 E20.72142
G1 X86.594 Y134.414 E20.74971
G1 X86.5 Y133 E20.79684
G1 X86.518 Y118.443 E21.28101
G1 X86.572 Y117.769 E21.3035
G1 X86.853 Y116.281 E21.35387
G1 X87.306 Y114.878 E21.4029
G1 X87.65 Y114.114 E21.43077
G1 X88.396 Y112.844 E21.47976
G1 X88.767 Y112.353 E21.50023
G1 X88.03 Y111.419 E21.5398
G1 X87.777 Y111.029 E21.55526
G1 X86.976 Y109.45 E21.61415
G1 X86.574 Y108.352 E21.65304
G1 X86.272 Y107.183 E21.6932
G1 X86.175 Y106.599 E21.71289
G1 X86.064 Y105 E21.7662
G1 X86.082 Y90.54 E22.24714
G1 X86.132 Y89.827 E22.27091
G1 X86.387 Y88.304 E22.32227
G1 X86.594 Y87.556 E22.34809
G1 X87.078 Y86.309 E22.39258
G1 X87.741 Y85.036 E22.44031
G1 X88.083 Y84.509 E22.46121
G1 X89.222 Y83.116 E22.52106
G1 X89.834 Y82.52 E22.54947
G1 X90.579 Y81.922 E22.58124
G1 X90.919 Y80.536 E22.62871
G1 X91.865 Y78.713 E22.69702
G0 F9000 X92.188 Y78.958
G1 F1800 X93.503 Y77.73 E22.75686
G1 X95.219 Y76.706 E22.82333
G1 X96.716 Y76.46 E22.87379
G1 X123.214 Y76.4 E23.75511
G1 X124.821 Y76.795 E23.81015
G1 X126.542 Y77.688 E23.87464
G1 X127.773 Y79.006 E23.93463
G1 X128.655 Y80.485 E23.9919
G1 X128.829 Y80.946 E24.00829
G1 X129.007 Y82.104 E24.04726
G1 X130.097 Y83.001 E24.09421
G1 X130.693 Y83.613 E24.12262
G1 X131.619 Y84.78 E24.17217
G1 X131.822 Y84.734 E24.17909
G1 X133.625 Y84.602 E24.23922
G1 X137.134 Y85.589 E24.36046
G1 X138.773 Y86.443 E24.42193
G1 X141.216 Y89.005 E24.53967
G1 X142.11 Y90.414 E24.59517
G1 X143.047 Y93.623 E24.70636
G1 X143.203 Y95.533 E24.7701
G1 X142.441 Y98.225 E24.86316
G1 X142.822 Y99.522 E24.90812
G1 X142.869 Y100.56 E24.94268
G1 X142.84 Y101.077 E24.9599
G1 X142.867 Y101.59 E24.97698
G1 X142.825 Y102.529 E25.00825
G1 X141.96 Y105.629 E25.11529
G1 X141.138 Y107.186 E25.17385
G1 X138.752 Y109.572 E25.28608
G1 X137.217 Y110.548 E25.34658
G1 X133.47 Y111.611 E25.47613
G1 X131.446 Y111.447 E25.54367
G1 X130.734 Y112.312 E25.58093
G1 X131.534 Y113.469 E25.62771
G1 X132.202 Y114.74 E25.67547
G1 X132.54 Y115.605 E25.70636
G1 X132.871 Y116.813 E25.74802
G1 X133.011 Y117.652 E25.77631
G1 X133.1 Y119 E25.82124
G1 X133.083 Y133.525 E26.30434
G1 X133.029 Y134.199 E26.32683
G1 X132.778 Y135.549 E26.3725
G1 X132.33 Y136.956 E26.42162
G1 X131.986 Y137.72 E26.44948
G1 X131.29 Y138.911 E26.49537
G1 X130.661 Y139.753 E26.53032
G1 X129.663 Y140.811 E26.5787
G1 X129.047 Y141.332 E26.60553
G1 X128.031 Y142.034 E26.6466
G1 X126.76 Y142.702 E26.69436
G1 X125.895 Y143.04 E26.72525
G1 X124.687 Y143.371 E26.76691
G1 X123.848 Y143.511 E26.7952
G1 X122.5 Y143.6 E26.84013
G1 X96.975 Y143.583 E27.6891
G1 X96.301 Y143.529 E27.71159
G1 X94.951 Y143.278 E27.75726
G1 X93.544 Y142.83 E27.80637
G1 X92.78 Y142.486 E27.83424
G1 X91.589 Y141.79 E27.88012
G1 X90.747 Y141.161 E27.91507
G1 X89.689 Y140.163 E27.96345
G1 X89.168 Y139.547 E27.99028
G1 X88.466 Y138.531 E28.03136
G1 X87.798 Y137.26 E28.07911
G1 X87.46 Y136.395 E28.11
G1 X87.129 Y135.187 E28.15166
G1 X86.989 Y134.348 E28.17995
G1 X86.9 Y133 E28.22488
G1 X86.917 Y118.475 E28.70799
G1 X86.971 Y117.801 E28.73048
G1 X87.234 Y116.403 E28.77779
G1 X87.671 Y115.042 E28.82533
G1 X88.015 Y114.278 E28.8532
G1 X88.715 Y113.085 E28.89921
G1 X89.272 Y112.347 E28.92996
G1 X88.366 Y111.201 E28.97855
G1 X88.113 Y110.811 E28.99401
G1 X87.352 Y109.312 E29.04992
G1 X86.95 Y108.214 E29.08881
G1 X86.667 Y107.117 E29.12649
G1 X86.57 Y106.533 E29.14618
G1 X86.464 Y105 E29.19729
G1 X86.481 Y90.568 E29.6773
G1 X86.531 Y89.855 E29.70108
G1 X86.773 Y88.411 E29.74977
G1 X86.98 Y87.663 E29.77559
G1 X87.433 Y86.493 E29.81732
G1 X88.077 Y85.254 E29.86376
G1 X88.419 Y84.727 E29.88466
G1 X89.501 Y83.403 E29.94153
G1 X90.113 Y82.807 E29.96994
G1 X90.934 Y82.15 E30.00491
G1 X91.295 Y80.679 E30.05529
G1 X92.188 Y78.958 E30.11978
G0 F9000 X92.511 Y79.203
G1 F1800 X93.745 Y78.051 E30.17593
G1 X95.357 Y77.089 E30.23836
G1 X96.781 Y76.855 E30.28636
G1 X123.168 Y76.8 E31.164
G1 X124.678 Y77.171 E31.21572
G1 X126.297 Y78.011 E31.27638
G1 X127.449 Y79.245 E31.33253
G1 X128.311 Y80.69 E31.38849
G1 X128.441 Y81.049 E31.40119
G1 X128.635 Y82.317 E31.44386
G1 X129.81 Y83.28 E31.49438
G1 X130.406 Y83.892 E31.5228
G1 X131.276 Y84.987 E31.56931
G1 X131.441 Y85.239 E31.57933
G1 X131.851 Y85.133 E31.59342
G1 X133.585 Y85.006 E31.65124
G1 X136.984 Y85.962 E31.76868
G1 X138.529 Y86.767 E31.82663
G1 X140.9 Y89.254 E31.94091
G1 X141.742 Y90.581 E31.99318
G1 X142.651 Y93.694 E32.10104
G1 X142.798 Y95.494 E32.16111
G1 X142.024 Y98.227 E32.25559
G1 X142.424 Y99.588 E32.30277
G1 X142.469 Y100.578 E32.33573
G1 X142.44 Y101.077 E32.35235
G1 X142.467 Y101.572 E32.36884
G1 X142.427 Y102.468 E32.39867
G1 X141.587 Y105.478 E32.50261
G1 X140.812 Y106.946 E32.55782
G1 X138.499 Y109.259 E32.66662
G1 X137.053 Y110.179 E32.72362
G1 X133.431 Y111.206 E32.84884
G1 X131.613 Y111.059 E32.90951
G1 X131.32 Y110.971 E32.91968
G1 X130.202 Y112.328 E32.97816
G1 X130.503 Y112.681 E32.99359
G1 X131.18 Y113.656 E33.03307
G1 X131.829 Y114.886 E33.07932
G1 X132.167 Y115.751 E33.11021
G1 X132.476 Y116.879 E33.14911
G1 X132.616 Y117.718 E33.1774
G1 X132.7 Y119 E33.22013
G1 X132.684 Y133.493 E33.70217
G1 X132.63 Y134.167 E33.72466
G1 X132.385 Y135.475 E33.76892
G1 X131.965 Y136.793 E33.81493
G1 X131.64 Y137.519 E33.84139
G1 X130.969 Y138.672 E33.88576
G1 X130.369 Y139.479 E33.91921
G1 X129.404 Y140.506 E33.96608
G1 X128.819 Y141.003 E33.99161
G1 X127.844 Y141.68 E34.03109
G1 X126.614 Y142.329 E34.07734
G1 X125.749 Y142.667 E34.10823
G1 X124.621 Y142.976 E34.14713
G1 X123.782 Y143.116 E34.17542
G1 X122.5 Y143.2 E34.21815
G1 X97.007 Y143.184 E35.06605
G1 X96.333 Y143.13 E35.08854
G1 X95.025 Y142.885 E35.1328
G1 X93.707 Y142.465 E35.17881
G1 X92.981 Y142.14 E35.20527
G1 X91.828 Y141.469 E35.24964
G1 X91.021 Y140.869 E35.28309
G1 X89.994 Y139.904 E35.32996
G1 X89.497 Y139.319 E35.35549
G1 X88.82 Y138.344 E35.39497
G1 X88.171 Y137.114 E35.44122
G1 X87.833 Y136.249 E35.47211
G1 X87.524 Y135.121 E35.51101
G1 X87.384 Y134.282 E35.5393
G1 X87.3 Y133 E35.58203
G1 X87.316 Y118.507 E36.06407
G1 X87.37 Y117.833 E36.08656
G1 X87.615 Y116.525 E36.13082
G1 X88.036 Y115.206 E36.17687
G1 X88.38 Y114.442 E36.20474
G1 X89.034 Y113.326 E36.24776
G1 X89.796 Y112.316 E36.28984
G1 X89.567 Y112.077 E36.30085
G1 X88.702 Y110.983 E36.34724
G1 X88.449 Y110.593 E36.3627
G1 X87.728 Y109.174 E36.41564
G1 X87.326 Y108.076 E36.45453
G1 X87.062 Y107.051 E36.48974
G1 X86.965 Y106.467 E36.50943
G1 X86.864 Y105 E36.55833
G1 X86.88 Y90.596 E37.03741
G1 X86.93 Y89.883 E37.06119
G1 X87.159 Y88.518 E37.10722
G1 X87.366 Y87.77 E37.13303
G1 X87.788 Y86.677 E37.172
G1 X88.413 Y85.472 E37.21715
G1 X88.755 Y84.945 E37.23805
G1 X89.78 Y83.69 E37.29194
G1 X90.392 Y83.094 E37.32035
G1 X91.31 Y82.362 E37.35941
G1 X91.324 Y82.234 E37.36369
G1 X91.671 Y80.822 E37.41205
G1 X92.511 Y79.203 E37.47271
G0 F9000 X92.834 Y79.448
G1 F1800 X93.987 Y78.372 E37.52517
G1 X95.495 Y77.472 E37.58358
G1 X96.846 Y77.25 E37.62911
G1 X123.121 Y77.2 E38.50303
G1 X124.536 Y77.548 E38.55149
G1 X126.052 Y78.334 E38.60829
G1 X127.128 Y79.487 E38.66074
G1 X127.948 Y80.861 E38.71396
G1 X128.052 Y81.149 E38.72414
G1 X128.267 Y82.552 E38.77135
G1 X128.443 Y82.67 E38.7784
G1 X129.523 Y83.559 E38.82493
G1 X130.119 Y84.171 E38.85334
G1 X130.962 Y85.235 E38.89849
G1 X131.266 Y85.703 E38.91705
G1 X131.88 Y85.532 E38.93825
G1 X133.545 Y85.41 E38.99378
G1 X136.834 Y86.335 E39.10741
G1 X138.285 Y87.091 E39.16183
G1 X140.584 Y89.503 E39.27266
G1 X141.374 Y90.748 E39.3217
G1 X142.255 Y93.765 E39.42624
G1 X142.393 Y95.455 E39.48263
G1 X141.608 Y98.229 E39.57852
G1 X142.026 Y99.654 E39.62791
G1 X142.069 Y100.596 E39.65928
G1 X142.04 Y101.077 E39.6753
G1 X142.067 Y101.554 E39.69119
