;FLAVOR:Marlin
;TIME:5477
;Filament used: 4.26989m
;Layer height: 0.2
;MINX:82.2
;MINY:75.75
;MINZ:0.2
;MAXX:195.46
;MAXY:143.3
;MAXZ:16.4
;TARGET_MACHINE.NAME:Creality Ender-3 V3 SE
;Generated with Cura_SteamEngine 5.11.0
M220 S100 ;Reset Feedrate
M221 S100 ;Reset Flowrate

G28 ;Home

M420 S1; Use saved mesh leveling data

G92 E0 ;Reset Extruder
G1 Z2.0 F3000 ;Move Z Axis up
G1 X-3 Y20 Z0.28 F5000.0 ;Move to start position
M190 S60 ; Set bed temperature and wait
M109 S200 ; Set hotend temperature and wait
G1 X-3 Y100.0 Z0.28 F1500.0 E15 ;Draw the first line
G1 X-2 Y100.0 Z0.28 F5000.0 ;Move to side a little
G1 X-2 Y20 Z0.28 F1500.0 E30 ;Draw the second line
G92 E0 ;Reset Extruder
G1 E-1.0000 F1800 ;Retract a bit
G1 Z2.0 F3000 ;Move Z Axis up
G1 E0.0000 F1800 

M82 ;absolute extrusion mode
G92 E0
G92 E0
G1 F2400 E-0.8
;LAYER_COUNT:82
;LAYER:0
M107
G0 F9000 X83.719 Y79.723 Z0.2
;TYPE:SKIRT
G1 F2400 E0
G1 F1800 X85.286 Y78.258 E0.07135
G1 X87.105 Y77.174 E0.14178
G1 X87.493 Y77.027 E0.15558
G1 X89.27 Y76.755 E0.21537
G1 X98.051 Y76.702 E0.50743
G1 X98.147 Y76.71 E0.51064
G1 X99.793 Y76.245 E0.56752
G1 X101.985 Y76.143 E0.64051
G1 X103.738 Y76.637 E0.70108
G1 X105.13 Y76.245 E0.74918
G1 X107.314 Y76.143 E0.8219
G1 X109.067 Y76.637 E0.88248
G1 X110.462 Y76.245 E0.93067
G1 X112.647 Y76.143 E1.00343
G1 X114.4 Y76.637 E1.064
G1 X115.793 Y76.245 E1.11213
G1 X117.983 Y76.143 E1.18505
G1 X118.43 Y76.272 E1.20053
G1 X119.92 Y75.852 E1.25201
G1 X122.128 Y75.75 E1.32553
G1 X124.603 Y76.451 E1.41109
G1 X125.099 Y76.719 E1.42984
G1 X130.815 Y76.7 E1.61996
G1 X132.756 Y77.156 E1.68627
G1 X134.794 Y78.237 E1.763
G1 X135.033 Y78.493 E1.77465
G1 X135.283 Y78.26 E1.78602
G1 X137.105 Y77.174 E1.85656
G1 X137.493 Y77.027 E1.87036
G1 X139.269 Y76.755 E1.93012
G1 X146.822 Y76.704 E2.18134
G1 X148.856 Y76.123 E2.2517
G1 X151.081 Y76.225 E2.32578
G1 X152.13 Y76.521 E2.36203
G1 X153.108 Y76.245 E2.39583
G1 X155.303 Y76.143 E2.46892
G1 X157.054 Y76.636 E2.52942
G1 X158.446 Y76.245 E2.57751
G1 X160.63 Y76.143 E2.65023
G1 X162.383 Y76.637 E2.7108
G1 X163.778 Y76.245 E2.759
G1 X165.963 Y76.143 E2.83175
G1 X167.716 Y76.637 E2.89233
G1 X169.109 Y76.245 E2.94046
G1 X171.299 Y76.143 E3.01338
G1 X173.317 Y76.723 E3.08321
G1 X180.815 Y76.7 E3.3326
G1 X182.756 Y77.156 E3.39891
G1 X184.794 Y78.237 E3.47564
G1 X186.203 Y79.745 E3.54429
G1 X187.371 Y81.699 E3.62
G1 X187.598 Y82.831 E3.6584
G1 X188.715 Y83.145 E3.69699
G1 X190.67 Y84.162 E3.77029
G1 X193.093 Y86.757 E3.88837
G1 X194.255 Y88.415 E3.95571
G1 X195.277 Y91.903 E4.0766
G1 X195.46 Y94.156 E4.15179
G1 X194.874 Y96.231 E4.2235
G1 X195.277 Y97.602 E4.27103
G1 X195.46 Y99.858 E4.34631
G1 X194.388 Y103.663 E4.47779
G1 X193.425 Y105.485 E4.54634
G1 X190.855 Y108.054 E4.6672
G1 X189.106 Y109.192 E4.7366
G1 X187.746 Y109.571 E4.78356
G1 X187.334 Y111.249 E4.84102
G1 X186.281 Y113.277 E4.91703
G1 X184.71 Y114.746 E4.98856
G1 X184.045 Y115.141 E5.01429
G1 X184.237 Y116.399 E5.05661
G1 X184.3 Y117.501 E5.09333
G1 X184.28 Y132.108 E5.57916
G1 X184.208 Y132.959 E5.60756
G1 X184.015 Y134.055 E5.64458
G1 X183.654 Y135.321 E5.68836
G1 X183.142 Y136.581 E5.7336
G1 X182.578 Y137.635 E5.77336
G1 X182.132 Y138.306 E5.80016
G1 X181.032 Y139.648 E5.85787
G1 X180.402 Y140.26 E5.88708
G1 X179.269 Y141.159 E5.93519
G1 X178.242 Y141.803 E5.97551
G1 X177.147 Y142.34 E6.01607
G1 X176.113 Y142.727 E6.05279
G1 X174.917 Y143.044 E6.09394
G1 X173.816 Y143.217 E6.13101
G1 X172.5 Y143.3 E6.17487
G1 X146.892 Y143.28 E7.02659
G1 X146.041 Y143.208 E7.055
G1 X144.945 Y143.015 E7.09201
G1 X143.679 Y142.654 E7.1358
G1 X142.419 Y142.142 E7.18104
G1 X141.332 Y141.559 E7.22206
G1 X140.757 Y141.179 E7.24498
G1 X139.387 Y140.064 E7.30373
G1 X138.715 Y139.372 E7.33582
G1 X137.814 Y138.229 E7.38422
G1 X137.138 Y137.139 E7.42688
G1 X136.785 Y136.433 E7.45314
G1 X136.196 Y134.87 E7.50869
G1 X135.996 Y134.108 E7.53489
G1 X135.763 Y132.601 E7.58561
G1 X135.7 Y131.499 E7.62233
G1 X135.72 Y116.892 E8.10816
G1 X135.787 Y116.077 E8.13536
G1 X135.944 Y115.156 E8.16643
G1 X135.21 Y114.767 E8.19406
G1 X134.966 Y114.506 E8.20594
G1 X134.707 Y114.748 E8.21773
G1 X134.045 Y115.141 E8.24334
G1 X134.237 Y116.399 E8.28566
G1 X134.3 Y117.501 E8.32238
G1 X134.28 Y132.108 E8.80821
G1 X134.208 Y132.959 E8.83661
G1 X134.015 Y134.055 E8.87363
G1 X133.654 Y135.321 E8.91741
G1 X133.142 Y136.581 E8.96265
G1 X132.578 Y137.635 E9.00241
G1 X132.132 Y138.306 E9.02921
G1 X131.032 Y139.648 E9.08692
G1 X130.402 Y140.26 E9.11613
G1 X129.269 Y141.159 E9.16424
G1 X128.242 Y141.803 E9.20456
G1 X127.144 Y142.341 E9.24522
G1 X126.11 Y142.728 E9.28195
G1 X124.955 Y143.036 E9.3217
G1 X123.775 Y143.221 E9.36143
G1 X122.5 Y143.3 E9.40392
G1 X96.892 Y143.28 E10.25564
G1 X96.041 Y143.208 E10.28405
G1 X94.945 Y143.015 E10.32106
G1 X93.679 Y142.654 E10.36485
G1 X92.419 Y142.142 E10.41008
G1 X91.332 Y141.559 E10.45111
G1 X90.757 Y141.179 E10.47403
G1 X89.387 Y140.064 E10.53278
G1 X88.715 Y139.372 E10.56487
G1 X87.814 Y138.229 E10.61327
G1 X87.138 Y137.139 E10.65593
G1 X86.785 Y136.433 E10.68219
G1 X86.196 Y134.87 E10.73774
G1 X85.996 Y134.108 E10.76394
G1 X85.763 Y132.601 E10.81466
G1 X85.7 Y131.499 E10.85137
G1 X85.72 Y116.892 E11.33721
G1 X85.787 Y116.077 E11.3644
G1 X85.944 Y115.156 E11.39548
G1 X85.21 Y114.767 E11.42311
G1 X83.797 Y113.255 E11.49194
G1 X82.629 Y111.301 E11.56765
G1 X82.2 Y109.158 E11.64035
G1 X82.2 Y83.647 E12.48884
G1 X82.666 Y81.751 E12.55378
G1 X83.719 Y79.723 E12.62978
G0 F9000 X84.042 Y79.968
G1 F1800 X85.525 Y78.582 E12.6973
G1 X87.31 Y77.518 E12.76641
G1 X87.594 Y77.416 E12.77645
G1 X89.272 Y77.155 E12.83293
G1 X98.053 Y77.102 E13.125
G1 X98.18 Y77.116 E13.12924
G1 X99.856 Y76.643 E13.18717
G1 X101.941 Y76.546 E13.25659
G1 X103.738 Y77.052 E13.31868
G1 X105.192 Y76.643 E13.36892
G1 X107.27 Y76.546 E13.43811
G1 X109.067 Y77.052 E13.5002
G1 X110.524 Y76.643 E13.55053
G1 X112.603 Y76.546 E13.61976
G1 X114.4 Y77.052 E13.68185
G1 X115.855 Y76.643 E13.73212
G1 X117.939 Y76.546 E13.80151
G1 X118.43 Y76.687 E13.8185
G1 X119.982 Y76.25 E13.87213
G1 X122.082 Y76.153 E13.94205
G1 X124.452 Y76.824 E14.02397
G1 X124.998 Y77.119 E14.04461
G1 X130.771 Y77.1 E14.23662
G1 X132.615 Y77.533 E14.29962
G1 X134.547 Y78.558 E14.37237
G1 X135.014 Y79.058 E14.39512
G1 X135.522 Y78.584 E14.41823
G1 X137.31 Y77.518 E14.48747
G1 X137.594 Y77.416 E14.4975
G1 X139.272 Y77.155 E14.55399
G1 X146.881 Y77.104 E14.80707
G1 X148.903 Y76.526 E14.87701
G1 X151.019 Y76.623 E14.94747
G1 X152.13 Y76.936 E14.98586
G1 X153.17 Y76.643 E15.02179
G1 X155.258 Y76.546 E15.09132
G1 X157.053 Y77.052 E15.15334
G1 X158.508 Y76.643 E15.20361
G1 X160.586 Y76.546 E15.2728
G1 X162.383 Y77.052 E15.3349
G1 X163.84 Y76.643 E15.38523
G1 X165.919 Y76.546 E15.45445
G1 X167.716 Y77.052 E15.51654
G1 X169.171 Y76.643 E15.56681
G1 X171.255 Y76.546 E15.6362
G1 X173.263 Y77.123 E15.70569
G1 X180.771 Y77.1 E15.95541
G1 X182.615 Y77.533 E16.01841
G1 X184.547 Y78.558 E16.09115
G1 X185.882 Y79.987 E16.15619
G1 X186.992 Y81.844 E16.22815
G1 X187.254 Y83.15 E16.27245
G1 X188.565 Y83.518 E16.31774
G1 X190.426 Y84.486 E16.38751
G1 X192.765 Y86.987 E16.50141
G1 X193.89 Y88.592 E16.5666
G1 X194.881 Y91.975 E16.68384
G1 X195.055 Y94.117 E16.75532
G1 X194.457 Y96.233 E16.82846
G1 X194.881 Y97.675 E16.87845
G1 X195.055 Y99.82 E16.95003
G1 X194.015 Y103.511 E17.07757
G1 X193.099 Y105.245 E17.14279
G1 X190.6 Y107.743 E17.26032
G1 X188.939 Y108.824 E17.32623
G1 X187.414 Y109.249 E17.37889
G1 X186.958 Y111.106 E17.44248
G1 X185.958 Y113.032 E17.51466
G1 X184.469 Y114.424 E17.58246
G1 X183.609 Y114.935 E17.61573
G1 X183.838 Y116.422 E17.66577
G1 X183.9 Y117.5 E17.70169
G1 X183.881 Y132.075 E18.18645
G1 X183.814 Y132.89 E18.21365
G1 X183.63 Y133.946 E18.2493
G1 X183.283 Y135.171 E18.29165
G1 X182.789 Y136.392 E18.33546
G1 X182.225 Y137.446 E18.37522
G1 X181.822 Y138.053 E18.39945
G1 X180.753 Y139.361 E18.45564
G1 X180.123 Y139.973 E18.48485
G1 X179.056 Y140.82 E18.53016
G1 X178.029 Y141.464 E18.57048
G1 X177.007 Y141.965 E18.60833
G1 X175.973 Y142.352 E18.64506
G1 X174.815 Y142.657 E18.68488
G1 X173.791 Y142.818 E18.71936
G1 X172.5 Y142.9 E18.76239
G1 X146.925 Y142.881 E19.61301
G1 X146.11 Y142.814 E19.64021
G1 X145.054 Y142.63 E19.67586
G1 X143.829 Y142.283 E19.71821
G1 X142.608 Y141.789 E19.76202
G1 X141.553 Y141.225 E19.80181
G1 X140.978 Y140.845 E19.82473
G1 X139.674 Y139.785 E19.88063
G1 X139.002 Y139.093 E19.91271
G1 X138.154 Y138.018 E19.95825
G1 X137.496 Y136.96 E19.99969
G1 X137.143 Y136.254 E20.02594
G1 X136.583 Y134.768 E20.07876
G1 X136.383 Y134.006 E20.10496
G1 X136.162 Y132.578 E20.15302
G1 X136.1 Y131.5 E20.18894
G1 X136.119 Y116.925 E20.6737
G1 X136.186 Y116.11 E20.7009
G1 X136.387 Y114.939 E20.74042
G1 X135.457 Y114.446 E20.77543
G1 X134.986 Y113.942 E20.79837
G1 X134.468 Y114.424 E20.82191
G1 X133.609 Y114.935 E20.85515
G1 X133.838 Y116.422 E20.90519
G1 X133.9 Y117.5 E20.9411
G1 X133.881 Y132.075 E21.42587
G1 X133.814 Y132.89 E21.45307
G1 X133.63 Y133.946 E21.48872
G1 X133.283 Y135.171 E21.53107
G1 X132.789 Y136.392 E21.57488
G1 X132.225 Y137.446 E21.61464
G1 X131.822 Y138.053 E21.63887
G1 X130.753 Y139.361 E21.69505
G1 X130.123 Y139.973 E21.72427
G1 X129.056 Y140.82 E21.76958
G1 X128.029 Y141.464 E21.8099
G1 X127.004 Y141.966 E21.84786
G1 X125.97 Y142.353 E21.88458
G1 X124.853 Y142.649 E21.92301
G1 X123.75 Y142.822 E21.96015
G1 X122.5 Y142.9 E22.0018
G1 X96.925 Y142.881 E22.85243
G1 X96.11 Y142.814 E22.87963
G1 X95.054 Y142.63 E22.91528
G1 X93.829 Y142.283 E22.95763
G1 X92.608 Y141.789 E23.00144
G1 X91.553 Y141.225 E23.04122
G1 X90.978 Y140.845 E23.06415
G1 X89.674 Y139.785 E23.12004
G1 X89.002 Y139.093 E23.15212
G1 X88.154 Y138.018 E23.19766
G1 X87.496 Y136.96 E23.2391
G1 X87.143 Y136.254 E23.26536
G1 X86.583 Y134.768 E23.31817
G1 X86.383 Y134.006 E23.34438
G1 X86.162 Y132.578 E23.39244
G1 X86.1 Y131.5 E23.42835
G1 X86.119 Y116.925 E23.91312
G1 X86.186 Y116.11 E23.94032
G1 X86.387 Y114.939 E23.97983
G1 X85.457 Y114.446 E24.01484
G1 X84.118 Y113.013 E24.08007
G1 X83.008 Y111.156 E24.15203
G1 X82.6 Y109.119 E24.22113
G1 X82.6 Y83.693 E25.0668
G1 X83.042 Y81.894 E25.12841
G1 X84.042 Y79.968 E25.20059
G0 F9000 X84.365 Y80.213
G1 F1800 X85.764 Y78.906 E25.26427
G1 X87.515 Y77.862 E25.33208
G1 X87.656 Y77.811 E25.33706
G1 X89.275 Y77.555 E25.39158
G1 X98.01 Y77.5 E25.68211
G1 X98.213 Y77.522 E25.6889
G1 X99.919 Y77.041 E25.74786
G1 X101.896 Y76.949 E25.81368
G1 X103.737 Y77.468 E25.8773
G1 X105.254 Y77.041 E25.92972
G1 X107.225 Y76.949 E25.99535
G1 X109.066 Y77.468 E26.05897
G1 X110.586 Y77.041 E26.11148
G1 X112.558 Y76.949 E26.17714
G1 X114.399 Y77.468 E26.24076
G1 X115.917 Y77.041 E26.2932
G1 X117.894 Y76.949 E26.35903
G1 X118.429 Y77.103 E26.37755
G1 X120.044 Y76.648 E26.43335
G1 X122.036 Y76.556 E26.49968
G1 X124.301 Y77.197 E26.57797
G1 X124.897 Y77.519 E26.6005
G1 X130.726 Y77.5 E26.79438
G1 X132.474 Y77.911 E26.8541
G1 X134.3 Y78.879 E26.92284
G1 X134.995 Y79.623 E26.9567
G1 X135.764 Y78.906 E26.99167
G1 X137.515 Y77.862 E27.05948
G1 X137.656 Y77.811 E27.06446
G1 X139.275 Y77.555 E27.11898
G1 X146.94 Y77.504 E27.37393
G1 X148.95 Y76.929 E27.44346
G1 X150.956 Y77.021 E27.51025
G1 X152.13 Y77.352 E27.55082
G1 X153.233 Y77.041 E27.58894
G1 X155.214 Y76.949 E27.6549
G1 X157.053 Y77.467 E27.71844
G1 X158.57 Y77.041 E27.77085
G1 X160.541 Y76.949 E27.83648
G1 X162.382 Y77.468 E27.90009
G1 X163.902 Y77.041 E27.95261
G1 X165.874 Y76.949 E28.01827
G1 X167.715 Y77.468 E28.08189
G1 X169.233 Y77.041 E28.13433
G1 X171.211 Y76.949 E28.20019
G1 X173.209 Y77.523 E28.26934
G1 X180.726 Y77.5 E28.51935
G1 X182.474 Y77.911 E28.57908
G1 X184.3 Y78.879 E28.64782
G1 X185.561 Y80.229 E28.70926
G1 X186.614 Y81.99 E28.7775
G1 X186.91 Y83.469 E28.82767
G1 X188.415 Y83.891 E28.87966
G1 X190.182 Y84.81 E28.9459
G1 X192.437 Y87.217 E29.0556
G1 X193.525 Y88.769 E29.11864
G1 X194.485 Y92.047 E29.23225
G1 X194.65 Y94.078 E29.30002
G1 X194.04 Y96.236 E29.37461
G1 X194.485 Y97.748 E29.42703
G1 X194.65 Y99.782 E29.49491
G1 X193.642 Y103.359 E29.61851
G1 X192.773 Y105.005 E29.68042
G1 X190.345 Y107.432 E29.7946
G1 X188.772 Y108.456 E29.85703
G1 X187 Y108.95 E29.91821
G1 X187 Y109.26 E29.92852
G1 X186.581 Y110.964 E29.98689
G1 X185.635 Y112.787 E30.0552
G1 X184.228 Y114.102 E30.11925
G1 X183.139 Y114.749 E30.16138
G1 X183.23 Y115.097 E30.17335
G1 X183.439 Y116.445 E30.21872
G1 X183.5 Y117.5 E30.25386
G1 X183.482 Y132.042 E30.73753
G1 X183.415 Y132.857 E30.76473
G1 X183.245 Y133.838 E30.79785
G1 X182.912 Y135.022 E30.83875
G1 X182.436 Y136.204 E30.88114
G1 X181.891 Y137.226 E30.91966
G1 X181.512 Y137.8 E30.94254
G1 X180.474 Y139.074 E30.99719
G1 X179.844 Y139.686 E31.02641
G1 X178.843 Y140.481 E31.06892
G1 X177.816 Y141.125 E31.10924
G1 X176.866 Y141.591 E31.14443
G1 X175.871 Y141.965 E31.17979
G1 X174.713 Y142.27 E31.21962
G1 X173.765 Y142.419 E31.25154
G1 X172.5 Y142.5 E31.2937
G1 X146.958 Y142.482 E32.14323
G1 X146.143 Y142.415 E32.17042
G1 X145.162 Y142.245 E32.20354
G1 X143.978 Y141.912 E32.24445
G1 X142.796 Y141.436 E32.28683
G1 X141.774 Y140.891 E32.32535
G1 X141.199 Y140.511 E32.34828
G1 X139.927 Y139.475 E32.40284
G1 X139.316 Y138.845 E32.43203
G1 X138.493 Y137.806 E32.47611
G1 X137.854 Y136.781 E32.51629
G1 X137.501 Y136.075 E32.54254
G1 X136.97 Y134.666 E32.59262
G1 X136.77 Y133.904 E32.61882
G1 X136.561 Y132.555 E32.66423
G1 X136.5 Y131.5 E32.69938
G1 X136.518 Y116.958 E33.18305
G1 X136.585 Y116.143 E33.21024
G1 X136.754 Y115.164 E33.24329
G1 X136.871 Y114.742 E33.25785
G1 X135.702 Y114.123 E33.30185
G1 X135.005 Y113.377 E33.3358
G1 X134.228 Y114.102 E33.37115
G1 X133.139 Y114.749 E33.41328
G1 X133.23 Y115.097 E33.42524
G1 X133.439 Y116.445 E33.47062
G1 X133.5 Y117.5 E33.50576
G1 X133.482 Y132.042 E33.98943
G1 X133.415 Y132.857 E34.01663
G1 X133.245 Y133.838 E34.04975
G1 X132.912 Y135.022 E34.09065
G1 X132.436 Y136.204 E34.13303
G1 X131.891 Y137.226 E34.17156
G1 X131.512 Y137.8 E34.19444
G1 X130.474 Y139.074 E34.24909
G1 X129.844 Y139.686 E34.27831
G1 X128.843 Y140.481 E34.32082
G1 X127.816 Y141.125 E34.36114
G1 X126.864 Y141.591 E34.39639
G1 X125.83 Y141.978 E34.43311
G1 X124.751 Y142.262 E34.47022
G1 X123.725 Y142.423 E34.50477
G1 X122.5 Y142.5 E34.54559
G1 X96.958 Y142.482 E35.39512
G1 X96.143 Y142.415 E35.42232
G1 X95.162 Y142.245 E35.45543
G1 X93.978 Y141.912 E35.49634
G1 X92.796 Y141.436 E35.53872
G1 X91.774 Y140.891 E35.57725
G1 X91.199 Y140.511 E35.60017
G1 X89.927 Y139.475 E35.65473
G1 X89.316 Y138.845 E35.68392
G1 X88.493 Y137.806 E35.72801
G1 X87.854 Y136.781 E35.76818
G1 X87.501 Y136.075 E35.79444
G1 X86.97 Y134.666 E35.84452
G1 X86.77 Y133.904 E35.87072
G1 X86.561 Y132.555 E35.91612
G1 X86.5 Y131.5 E35.95127
G1 X86.518 Y116.958 E36.43494
G1 X86.585 Y116.143 E36.46214
G1 X86.754 Y115.164 E36.49518
G1 X86.871 Y114.742 E36.50975
G1 X85.702 Y114.123 E36.55374
G1 X84.439 Y112.771 E36.61528
G1 X83.386 Y111.01 E36.68352
G1 X83 Y109.081 E36.74895
G1 X83 Y83.74 E37.5918
G1 X83.419 Y82.036 E37.65016
G1 X84.365 Y80.213 E37.71847
G0 F9000 X84.688 Y80.458
G1 F1800 X86.003 Y79.23 E37.77832
G1 X87.72 Y78.206 E37.84481
G1 X89.278 Y77.955 E37.8973
G1 X98.013 Y77.9 E38.18783
G1 X98.244 Y77.929 E38.19557
G1 X99.982 Y77.439 E38.25563
G1 X101.852 Y77.352 E38.3179
G1 X103.737 Y77.883 E38.38303
G1 X105.316 Y77.439 E38.43759
G1 X107.181 Y77.352 E38.49968
G1 X109.066 Y77.883 E38.56482
G1 X110.648 Y77.439 E38.61947
G1 X112.514 Y77.352 E38.6816
G1 X114.399 Y77.883 E38.74674
G1 X115.979 Y77.439 E38.80132
G1 X117.849 Y77.352 E38.86359
G1 X118.429 Y77.519 E38.88366
G1 X120.107 Y77.046 E38.94165
G1 X121.99 Y76.959 E39.00434
G1 X124.15 Y77.57 E39.079
G1 X124.796 Y77.919 E39.10342
G1 X130.681 Y77.9 E39.29916
G1 X132.333 Y78.289 E39.35561
G1 X134.053 Y79.2 E39.42034
G1 X134.976 Y80.188 E39.46531
G1 X136.003 Y79.23 E39.51203
G1 X137.72 Y78.206 E39.57852
G1 X139.278 Y77.955 E39.63101
G1 X146.999 Y77.904 E39.88781
G1 X148.997 Y77.332 E39.95694
G1 X150.894 Y77.419 E40.0201
G1 X152.13 Y77.767 E40.06281
G1 X153.295 Y77.439 E40.10306
G1 X155.169 Y77.352 E40.16546
G1 X157.052 Y77.883 E40.23053
G1 X158.632 Y77.439 E40.28511
G1 X160.497 Y77.352 E40.34721
